X: 10
T:Ali Pasha
O:Turkey
F: http://www.youtube.com/watch?v=MZL8Ww9gPno
S:adapted from Richard Geisler, 1983
M:5/4
L:1/8
Q:1/4=140
K:Am
%%MIDI beatstring fppmp
|: "C" [G2E2] [G2E2] [c2G2] [G4c4]         |"G7"  cB BA cB B4       |\
   "F"  [B2G2]  [A2F2] GA [A3F3] A         |"C" BG GF FG G4         :|
|: "F"  F2 [A2F2] [A2F2] "G7" [A2F2] GF    |\
   "C" [E2C2] [G2E2] "A7" [G2D2] [G2^C2] FE|\
   "Dm" D2 F2 F2 "C" ED C2                 | "G7" D2 ED CB, "C" C4  :|



